X:1
T:Hark! The Herald Angels Sing
T:Text: Charles Wesley, 1739, alt. Tune: Felix Mendelssohn, 1840; adapt. William H. Cumming, 1856
T:77 77 D with refrain MENDELSSOHN www.hymnary.org/text/hark_the_herald_angels_sing_glory_to
T:Hark! The Herald Angels Sing
T:This hymn is in the public domain. You may freely use this score for personal and congregational worship. If you reproduce the score, please credit Hymnary.org as the source. 
T:This hymn is in the public domain. You may freely use this score for personal and congregational worship. If you reproduce the score, please credit Hymnary.org as the source. 
T:This hymn is in the public domain. You may freely use this score for personal and congregational worship. If you reproduce the score, please credit Hymnary.org as the source. 
Z:This hymn is in the public domain. You may freely use this score for personal and congregational worship. If you reproduce the score, please credit Hymnary.org as the source.
%%score ( 1 2 ) ( 3 4 5 )
L:1/8
M:4/4
K:F
V:1 treble nm="SOPRANO ALTO" snm="S. A."
V:2 treble 
V:3 bass nm="TENOR BASS" snm="T. B."
V:4 bass 
V:5 bass 
V:1
"^1""^2""^3" C2 F2 F3 E | F2 A2 (A2 G2) | c2 c2 c3 B | A2 G2 A4 | C2 F2 F3 E | F2 A2 (A2 G2) | %6
w: Hark! the her- ald|an- gels sing, *|"Glo- ry to the|new- born King;|peace on earth and|mer- cy mild, *|
w: Christ, by high- est|heaven a- dored, *|Christ, the ev- er-|last- ing Lord!|Late in time be-|hold him come, *|
w: Hail the heaven- born|Prince of Peace! *|Hail the Sun of|Right- eous- ness!|Light and life to|all he brings, _|
 c2 G2 G3 E | E2 D2 C4 |1 c2 c2 c2 F2 | B2 A2 (A2 G2) | c2 c2 c2 F2 | B2 A2 (A2 G2) || %12
w: God and sin- ners|rec- on- ciled!"|Joy- ful, all ye|na- tions, rise; *|join the tri- umph|of the skies; *|
w: off- spring of the|vir- gin's womb.|Veiled in flesh the|God- head see; *|hail the\_in- car- nate|De- i- ty, *|
w: risen with heal- ing|in his wings.|Mild, he lays his|glo- ry by, *|born that we no|more may die, *|
"^Page 2" d2 d2 d2 c2 | B2 A2 B4 | G2 AB c3"^Hark! The Herald Angels Sing" F | F2 G2 A4 || %16
w: with the\_an- gel- ic|hosts pro- claim,|"Christ is * born in|Beth- le- hem!"|
w: pleased as man with|us to dwell,|Je- sus, * our Im-|man- u- el.|
w: born to raise the|lost on earth,|born to * give them|sec- ond birth.|
"^Refrain" d3 d d2 c2 | B2 A2 B4 | G2 AB c3 F | F2 G2 F4 |] %20
w: Hark! the her- ald|an- gels sing,|"Glo- ry * to the|new- born King!"|
w: ||||
w: ||||
V:2
 C2 C2 C3 C | C2 F2 (F2 E2) | F2 E2 D2 G2 | F2 E2 F4 | C2 C2 C3 C | A,2 F2 F4 | E2 D2 E3 C | %7
 C2 =B,2 C4 |1 C2 C2 C2 F2 | G2 F2 (F2 E2) | C2 C2 C2 F2 | G2 F2 (F2 E2) || B2 B2 B2 A2 | %13
 G2 ^F2 G4 | E2 E2 F3 C | C2 E2 F4 || B3 B B2 A2 | G2 ^F2 G4 | C2 E2 F3 F | C2 E2 C4 |] %20
V:3
 x8 | x8 | x8 | x8 | x8 | x8 | x6 E,2 | F,2 x6 |1 x8 | x8 | x8 | x8 || x8 | x8 | x8 | x8 || B,,8- | %17
 B,,2 D,2 x4 | x8 | x8 |] %20
V:4
 A,2 A,2 A,3 G, | F,2 C2 C4 | C2 C2 D2 D2 | C2 C2 C4 | A,2 A,2 A,3 G, | F,2 C2 D4 | C2 D2 C3 G, | %7
 A,2 F,2 E,4 |1 C2 C2 C2 C2 | C2 C2 C4 | C2 C2 C2 C2 | C2 C2 C4 || D2 D2 D2 D2 | D2 D2 D4 | %14
 C2 C2 C3 A, | A,2 C2 C4 || D3 D D2 C2 | B,2 A,2 B,4 | C2 C2 C3 A, | A,2 B,2 A,4 |] %20
V:5
 F,2 F,2 F,2 C,2 | A,,2 F,,2 C,4 | A,,2 A,,2 B,,2 B,,2 | C,2 C,2 F,4 | F,2 F,2 F,2 C,2 | %5
 D,2 C,2 (=B,,3 G,,) | A,,2 =B,,2 C,2 E,,2 | F,,2 G,,2 C,4 |1 C2 C2 C2 A,2 | E,2 F,2 C,4 | %10
 C2 C2 C2 A,2 | E,2 F,2 C,4 || B,,2 B,,2 B,,2 B,,2 | B,,2 D,2 G,4 | B,2 B,2 A,2 F,2 | %15
 C,2 C,2 F,4 || B,3 B, B,2 A,2 | G,2 ^F,2 (G,2 =F,2) | E,2 B,2 A,2 F,2 | C,2 C,2 F,4 |] %20

